packages/match-icons/product/svg/frame.svg

<svg fill="none" height="32" viewBox="0 0 32 32" width="32" xmlns="http://www.w3.org/2000/svg"><g fill="#394762"><path d="m29.5 32h-27c-.66304 0-1.29893-.2634-1.767767-.7322-.468841-.4689-.732233-1.1048-.732233-1.7678v-27c0-.66304.263392-1.29893.732233-1.767767.468837-.468841 1.104727-.732233 1.767767-.732233h27c.663 0 1.2989.263392 1.7678.732233.4688.468837.7322 1.104727.7322 1.767767v27c0 .663-.2634 1.2989-.7322 1.7678-.4689.4688-1.1048.7322-1.7678.7322zm-27-30c-.13261 0-.25979.05268-.35355.14645-.09377.09376-.14645.22094-.14645.35355v27c0 .1326.05268.2598.14645.3536.09376.0937.22094.1464.35355.1464h27c.1326 0 .2598-.0527.3536-.1464.0937-.0938.1464-.221.1464-.3536v-27c0-.13261-.0527-.25979-.1464-.35355-.0938-.09377-.221-.14645-.3536-.14645z"/><path d="m26 26.9999c-.1316.0008-.2621-.0244-.3839-.0742s-.2327-.1231-.3261-.2158l-20-19.99996c-.1883-.1883-.29409-.4437-.29409-.71s.10579-.52169.29409-.71c.18831-.1883.4437-.29409.71-.29409s.5217.10579.71.29409l20 19.99996c.0937.093.1681.2036.2189.3255.0508.1218.0769.2525.0769.3845 0 .1321-.0261.2628-.0769.3846-.0508.1219-.1252.2325-.2189.3254-.0934.0927-.2043.166-.3261.2158s-.2523.075-.3839.0742z"/><path d="m6 26.9999c-.13161.0008-.26207-.0244-.38391-.0742-.12183-.0498-.23265-.1231-.32609-.2158-.09373-.0929-.16812-.2035-.21889-.3254-.05077-.1218-.07691-.2525-.07691-.3846 0-.132.02614-.2627.07691-.3845.05077-.1219.12516-.2325.21889-.3255l20-19.99996c.1883-.1883.4437-.29409.71-.29409s.5217.10579.71.29409c.1883.18831.2941.4437.2941.71s-.1058.5217-.2941.71l-20 19.99996c-.09344.0927-.20426.166-.32609.2158-.12184.0498-.2523.075-.38391.0742z"/><path d="m16 25c-1.78 0-3.5201-.5278-5.0001-1.5168-1.48007-.9889-2.63362-2.3945-3.31481-4.039-.68119-1.6446-.85942-3.4542-.51215-5.2.34726-1.7458 1.20443-3.3495 2.4631-4.60816 1.25866-1.25867 2.86236-2.11584 4.60816-2.4631 1.7458-.34727 3.5554-.16904 5.2.51215 1.6445.68119 3.0501 1.83474 4.039 3.31481.989 1.48 1.5168 3.2201 1.5168 5.0001 0 2.387-.9482 4.6761-2.636 6.364-1.6879 1.6878-3.977 2.636-6.364 2.636zm0-16c-1.3845 0-2.7378.41055-3.889 1.1797-1.1511.7692-2.0483 1.8624-2.57815 3.1415-.52982 1.2791-.66844 2.6866-.39834 4.0444.27009 1.3579.93679 2.6052 1.91579 3.5842.9789.9789 2.2262 1.6456 3.5841 1.9157 1.3578.2701 2.7653.1315 4.0444-.3983 1.2791-.5299 2.3723-1.4271 3.1415-2.5782s1.1797-2.5045 1.1797-3.889c0-1.8565-.7375-3.637-2.0502-4.9497-1.3128-1.3128-3.0933-2.0503-4.9498-2.0503z"/></g></svg>

<svg width="32" height="32" viewBox="0 0 32 32" fill="none" xmlns="http://www.w3.org/2000/svg">
<path d="M29.5 32H2.5C1.83696 32 1.20107 31.7366 0.732233 31.2678C0.263392 30.7989 0 30.163 0 29.5L0 2.5C0 1.83696 0.263392 1.20107 0.732233 0.732233C1.20107 0.263392 1.83696 0 2.5 0L29.5 0C30.163 0 30.7989 0.263392 31.2678 0.732233C31.7366 1.20107 32 1.83696 32 2.5V29.5C32 30.163 31.7366 30.7989 31.2678 31.2678C30.7989 31.7366 30.163 32 29.5 32ZM2.5 2C2.36739 2 2.24021 2.05268 2.14645 2.14645C2.05268 2.24021 2 2.36739 2 2.5V29.5C2 29.6326 2.05268 29.7598 2.14645 29.8536C2.24021 29.9473 2.36739 30 2.5 30H29.5C29.6326 30 29.7598 29.9473 29.8536 29.8536C29.9473 29.7598 30 29.6326 30 29.5V2.5C30 2.36739 29.9473 2.24021 29.8536 2.14645C29.7598 2.05268 29.6326 2 29.5 2H2.5Z" fill="#394762"/>
<path d="M26 26.9999C25.8684 27.0007 25.7379 26.9755 25.6161 26.9257C25.4943 26.8759 25.3834 26.8026 25.29 26.7099L5.29 6.70994C5.1017 6.52164 4.99591 6.26624 4.99591 5.99994C4.99591 5.73364 5.1017 5.47825 5.29 5.28994C5.47831 5.10164 5.7337 4.99585 6 4.99585C6.2663 4.99585 6.5217 5.10164 6.71 5.28994L26.71 25.2899C26.8037 25.3829 26.8781 25.4935 26.9289 25.6154C26.9797 25.7372 27.0058 25.8679 27.0058 25.9999C27.0058 26.132 26.9797 26.2627 26.9289 26.3845C26.8781 26.5064 26.8037 26.617 26.71 26.7099C26.6166 26.8026 26.5057 26.8759 26.3839 26.9257C26.2621 26.9755 26.1316 27.0007 26 26.9999Z" fill="#394762"/>
<path d="M6 26.9999C5.86839 27.0007 5.73793 26.9755 5.61609 26.9257C5.49426 26.8759 5.38344 26.8026 5.29 26.7099C5.19627 26.617 5.12188 26.5064 5.07111 26.3845C5.02034 26.2627 4.9942 26.132 4.9942 25.9999C4.9942 25.8679 5.02034 25.7372 5.07111 25.6154C5.12188 25.4935 5.19627 25.3829 5.29 25.2899L25.29 5.28994C25.4783 5.10164 25.7337 4.99585 26 4.99585C26.2663 4.99585 26.5217 5.10164 26.71 5.28994C26.8983 5.47825 27.0041 5.73364 27.0041 5.99994C27.0041 6.26624 26.8983 6.52164 26.71 6.70994L6.71 26.7099C6.61656 26.8026 6.50574 26.8759 6.38391 26.9257C6.26207 26.9755 6.13161 27.0007 6 26.9999Z" fill="#394762"/>
<path d="M16 25C14.22 25 12.4799 24.4722 10.9999 23.4832C9.51983 22.4943 8.36628 21.0887 7.68509 19.4442C7.0039 17.7996 6.82567 15.99 7.17294 14.2442C7.5202 12.4984 8.37737 10.8947 9.63604 9.63604C10.8947 8.37737 12.4984 7.5202 14.2442 7.17294C15.99 6.82567 17.7996 7.0039 19.4442 7.68509C21.0887 8.36628 22.4943 9.51983 23.4832 10.9999C24.4722 12.4799 25 14.22 25 16C25 18.387 24.0518 20.6761 22.364 22.364C20.6761 24.0518 18.387 25 16 25V25ZM16 9C14.6155 9 13.2622 9.41055 12.111 10.1797C10.9599 10.9489 10.0627 12.0421 9.53285 13.3212C9.00303 14.6003 8.86441 16.0078 9.13451 17.3656C9.4046 18.7235 10.0713 19.9708 11.0503 20.9498C12.0292 21.9287 13.2765 22.5954 14.6344 22.8655C15.9922 23.1356 17.3997 22.997 18.6788 22.4672C19.9579 21.9373 21.0511 21.0401 21.8203 19.889C22.5895 18.7379 23 17.3845 23 16C23 14.1435 22.2625 12.363 20.9498 11.0503C19.637 9.7375 17.8565 9 16 9V9Z" fill="#394762"/>
</svg>
